exported-svg/phone-missed.svg

<svg height="24" viewBox="0 0 24 24" width="24" xmlns="http://www.w3.org/2000/svg"><path d="m19.7071068 4 2.6464466 2.64644661c.1952621.19526215.1952621.51184463 0 .70710678-.1952622.19526215-.5118446.19526215-.7071068 0l-2.6464466-2.64644661-2.6464466 2.64644661c-.1952622.19526215-.5118446.19526215-.7071068 0-.1952621-.19526215-.1952621-.51184463 0-.70710678l2.6464466-2.64644661-2.6464466-2.64644661c-.1952621-.19526215-.1952621-.51184463 0-.70710678.1952622-.19526215.5118446-.19526215.7071068 0l2.6464466 2.64644661 2.6464466-2.64644661c.1952622-.19526215.5118446-.19526215.7071068 0 .1952621.19526215.1952621.51184463 0 .70710678zm1.7928891 15.9179705c.0028572.7039314-.2911901 1.376448-.8099027 1.8523311-.5187126.4758832-1.2140174.7110291-1.9241044.6467726-3.1549116-.3428069-6.1854263-1.4208695-8.84414954-3.1450673-2.478125-1.5747037-4.57914241-3.6757212-6.1514792-6.1501571-1.73272083-2.674708-2.81102827-5.71996059-3.14833092-8.89684958-.06315849-.69890958.17034001-1.39218447.64345722-1.91047368.47308235-.51825101 1.14220728-.8138408 1.84451364-.8147216h2.99512814c1.25482237-.01210675 2.3243312.90770767 2.50057905 2.15481632.12169221.92268068.34737432 1.82863315.67231896 2.6994483.34341876.91359379.12376884 1.94350783-.56447276 2.63948383l-.99713942.99713942c1.30535731 2.17016709 3.12272753 3.98753699 5.29289473 5.29289409l.9991217-.9991131c.6939922-.6862688 1.7239063-.9059187 2.636372-.5629224.8719432.3253671 1.7778957.5510492 2.7050438.6733511 1.2547937.1770207 2.1783095 1.2647439 2.1501538 2.5309605zm-.9999959-2.9979705.0001538-.0124025c.0188926-.7614056-.5358279-1.4161048-1.2855325-1.5218903-.9974523-.1315538-1.9768207-.3755246-2.9205517-.727681-.5481563-.2060513-1.1661047-.0742614-1.5805162.3355272l-1.27 1.27c-.1591565.1591565-.4050387.1923503-.6007007.0810939-2.5817816-1.4680416-4.71945837-3.6057184-6.18749995-6.1875-.11125645-.19566197-.07806264-.44154419.08109386-.60070069l1.26802724-1.26801617c.4117613-.4163953.54355125-1.03434373.33707753-1.58362802-.35173398-.94260307-.59570475-1.92197146-.72663056-2.91482664-.10537373-.74551989-.74710935-1.29743462-1.50492082-1.29014686h-2.99944157c-.421123.00054278-.82264808.1779188-1.10651323.48888665-.28387033.31097353-.42396943.72693846-.38684083 1.13848464.31994985 3.0128997 1.34511251 5.90806589 2.99480252 8.45463909 1.49596856 2.3542187 3.4919351 4.3501853 5.85004371 5.8486509 2.5313852 1.6415941 5.4125399 2.666524 8.4029535 2.9915393.420648.0380161.8378308-.1030715 1.1490584-.3886014.3112276-.2855298.487656-.6890398.4859375-1.1134281z"/></svg>

<?xml version="1.0" encoding="UTF-8"?>
<svg width="24px" height="24px" viewBox="0 0 24 24" version="1.1" xmlns="http://www.w3.org/2000/svg" xmlns:xlink="http://www.w3.org/1999/xlink">
    <!-- Generator: Sketch 55.2 (78181) - https://sketchapp.com -->
    <title>phone-missed</title>
    <desc>Created with Sketch.</desc>
    <g id="phone-missed" stroke="none" stroke-width="1" fill="none" fill-rule="evenodd">
        <path d="M19.7071068,4 L22.3535534,6.64644661 C22.5488155,6.84170876 22.5488155,7.15829124 22.3535534,7.35355339 C22.1582912,7.54881554 21.8417088,7.54881554 21.6464466,7.35355339 L19,4.70710678 L16.3535534,7.35355339 C16.1582912,7.54881554 15.8417088,7.54881554 15.6464466,7.35355339 C15.4511845,7.15829124 15.4511845,6.84170876 15.6464466,6.64644661 L18.2928932,4 L15.6464466,1.35355339 C15.4511845,1.15829124 15.4511845,0.841708755 15.6464466,0.646446609 C15.8417088,0.451184464 16.1582912,0.451184464 16.3535534,0.646446609 L19,3.29289322 L21.6464466,0.646446609 C21.8417088,0.451184464 22.1582912,0.451184464 22.3535534,0.646446609 C22.5488155,0.841708755 22.5488155,1.15829124 22.3535534,1.35355339 L19.7071068,4 Z" id="Combined-Shape" fill="#000000" fill-rule="nonzero"></path>
        <path d="M21.4999959,19.9179705 C21.5028531,20.6219019 21.2088058,21.2944185 20.6900932,21.7703016 C20.1713806,22.2461848 19.4760758,22.4813307 18.7659888,22.4170742 C15.6110772,22.0742673 12.5805625,20.9962047 9.92183926,19.2720069 C7.44371426,17.6973032 5.34269685,15.5962857 3.77036006,13.1218498 C2.03763923,10.4471418 0.959331788,7.40188921 0.622029137,4.22500022 C0.55887065,3.52609064 0.792369148,2.83281575 1.26548636,2.31452654 C1.73856871,1.79627553 2.40769364,1.50068574 3.11,1.49980494 L6.10512814,1.49980494 C7.35995051,1.48769819 8.42945934,2.40751261 8.60570719,3.65462126 C8.7273994,4.57730194 8.95308151,5.48325441 9.27802615,6.35406956 C9.62144491,7.26766335 9.40179499,8.29757739 8.71355339,8.99355339 L7.71641397,9.99069281 C9.02177128,12.1608599 10.8391415,13.9782298 13.0093087,15.2835869 L14.0084304,14.2844738 C14.7024226,13.598205 15.7323367,13.3785551 16.6448024,13.7215514 C17.5167456,14.0469185 18.4226981,14.2726006 19.3498462,14.3949025 C20.6046399,14.5719232 21.5281557,15.6596464 21.5,16.925863 L21.4999959,19.9179705 Z M20.5,16.92 L20.5001538,16.9075975 C20.5190464,16.1461919 19.9643259,15.4914927 19.2146213,15.3857072 C18.217169,15.2541534 17.2378006,15.0101826 16.2940696,14.6580262 C15.7459133,14.4519749 15.1279649,14.5837648 14.7135534,14.9935534 L13.4435534,16.2635534 C13.2843969,16.4227099 13.0385147,16.4559037 12.8428527,16.3446473 C10.2610711,14.8766057 8.12339433,12.7389289 6.65535275,10.1571473 C6.5440963,9.96148533 6.57729011,9.71560311 6.73644661,9.55644661 L8.00447385,8.28843044 C8.41623515,7.87203514 8.5480251,7.25408671 8.34155138,6.70480242 C7.9898174,5.76219935 7.74584663,4.78283096 7.61492082,3.78997578 C7.50954709,3.04445589 6.86781147,2.49254116 6.11,2.49982892 L3.11055843,2.49982892 C2.68943543,2.5003717 2.28791035,2.67774772 2.0040452,2.98871557 C1.72017487,3.2996891 1.58007577,3.71565403 1.61720437,4.12720021 C1.93715422,7.14009991 2.96231688,10.0352661 4.61200689,12.5818393 C6.10797545,14.936058 8.10394199,16.9320246 10.4620506,18.4304902 C12.9934358,20.0720843 15.8745905,21.0970142 18.8650041,21.4220295 C19.2856521,21.4600456 19.7028349,21.318958 20.0140625,21.0334281 C20.3252901,20.7478983 20.5017185,20.3443883 20.5,19.92 L20.5,16.92 Z" id="Shape" fill="#000000" fill-rule="nonzero"></path>
    </g>
</svg>
